bernoullicharts/2014_lin_x_2_0_bits.svg

<?xml version="1.0" encoding="utf-8" standalone="no"?>
<!DOCTYPE svg PUBLIC "-//W3C//DTD SVG 1.1//EN"
  "http://www.w3.org/Graphics/SVG/1.1/DTD/svg11.dtd">
<!-- Created with matplotlib (https://matplotlib.org/) -->
<svg height="345.6pt" version="1.1" viewBox="0 0 460.8 345.6" width="460.8pt" xmlns="http://www.w3.org/2000/svg" xmlns:xlink="http://www.w3.org/1999/xlink">
 <defs>
  <style type="text/css">
*{stroke-linecap:butt;stroke-linejoin:round;}
  </style>
 </defs>
 <g id="figure_1">
  <g id="patch_1">
   <path d="M 0 345.6 
L 460.8 345.6 
L 460.8 0 
L 0 0 
z
" style="fill:#ffffff;"/>
  </g>
  <g id="axes_1">
   <g id="patch_2">
    <path d="M 57.6 307.584 
L 414.72 307.584 
L 414.72 41.472 
L 57.6 41.472 
z
" style="fill:#ffffff;"/>
   </g>
   <g id="matplotlib.axis_1">
    <g id="xtick_1">
     <g id="line2d_1">
      <defs>
       <path d="M 0 0 
L 0 3.5 
" id="m32bc4f2425" style="stroke:#000000;stroke-width:0.8;"/>
      </defs>
      <g>
       <use style="stroke:#000000;stroke-width:0.8;" x="73.759665" xlink:href="#m32bc4f2425" y="307.584"/>
      </g>
     </g>
     <g id="text_1">
      <text style="font-family:DejaVu Sans;font-size:10px;font-style:normal;font-weight:normal;text-anchor:middle;" transform="rotate(-0, 73.759665, 322.182437)" x="73.759665" y="322.182437">0.0</text>
     </g>
    </g>
    <g id="xtick_2">
     <g id="line2d_2">
      <g>
       <use style="stroke:#000000;stroke-width:0.8;" x="146.82155" xlink:href="#m32bc4f2425" y="307.584"/>
      </g>
     </g>
     <g id="text_2">
      <text style="font-family:DejaVu Sans;font-size:10px;font-style:normal;font-weight:normal;text-anchor:middle;" transform="rotate(-0, 146.82155, 322.182437)" x="146.82155" y="322.182437">0.1</text>
     </g>
    </g>
    <g id="xtick_3">
     <g id="line2d_3">
      <g>
       <use style="stroke:#000000;stroke-width:0.8;" x="219.883436" xlink:href="#m32bc4f2425" y="307.584"/>
      </g>
     </g>
     <g id="text_3">
      <text style="font-family:DejaVu Sans;font-size:10px;font-style:normal;font-weight:normal;text-anchor:middle;" transform="rotate(-0, 219.883436, 322.182437)" x="219.883436" y="322.182437">0.2</text>
     </g>
    </g>
    <g id="xtick_4">
     <g id="line2d_4">
      <g>
       <use style="stroke:#000000;stroke-width:0.8;" x="292.945321" xlink:href="#m32bc4f2425" y="307.584"/>
      </g>
     </g>
     <g id="text_4">
      <text style="font-family:DejaVu Sans;font-size:10px;font-style:normal;font-weight:normal;text-anchor:middle;" transform="rotate(-0, 292.945321, 322.182437)" x="292.945321" y="322.182437">0.3</text>
     </g>
    </g>
    <g id="xtick_5">
     <g id="line2d_5">
      <g>
       <use style="stroke:#000000;stroke-width:0.8;" x="366.007206" xlink:href="#m32bc4f2425" y="307.584"/>
      </g>
     </g>
     <g id="text_5">
      <text style="font-family:DejaVu Sans;font-size:10px;font-style:normal;font-weight:normal;text-anchor:middle;" transform="rotate(-0, 366.007206, 322.182437)" x="366.007206" y="322.182437">0.4</text>
     </g>
    </g>
    <g id="text_6">
     <text style="font-family:DejaVu Sans;font-size:10px;font-style:normal;font-weight:normal;text-anchor:middle;" transform="rotate(-0, 236.16, 335.860562)" x="236.16" y="335.860562">Probability</text>
    </g>
   </g>
   <g id="matplotlib.axis_2">
    <g id="ytick_1">
     <g id="line2d_6">
      <defs>
       <path d="M 0 0 
L -3.5 0 
" id="mfe8ec1b23b" style="stroke:#000000;stroke-width:0.8;"/>
      </defs>
      <g>
       <use style="stroke:#000000;stroke-width:0.8;" x="57.6" xlink:href="#mfe8ec1b23b" y="300.408826"/>
      </g>
     </g>
     <g id="text_7">
      <text style="font-family:DejaVu Sans;font-size:10px;font-style:normal;font-weight:normal;text-anchor:end;" transform="rotate(-0, 50.6, 304.208045)" x="50.6" y="304.208045">0</text>
     </g>
    </g>
    <g id="ytick_2">
     <g id="line2d_7">
      <g>
       <use style="stroke:#000000;stroke-width:0.8;" x="57.6" xlink:href="#mfe8ec1b23b" y="248.015023"/>
      </g>
     </g>
     <g id="text_8">
      <text style="font-family:DejaVu Sans;font-size:10px;font-style:normal;font-weight:normal;text-anchor:end;" transform="rotate(-0, 50.6, 251.814242)" x="50.6" y="251.814242">100</text>
     </g>
    </g>
    <g id="ytick_3">
     <g id="line2d_8">
      <g>
       <use style="stroke:#000000;stroke-width:0.8;" x="57.6" xlink:href="#mfe8ec1b23b" y="195.621221"/>
      </g>
     </g>
     <g id="text_9">
      <text style="font-family:DejaVu Sans;font-size:10px;font-style:normal;font-weight:normal;text-anchor:end;" transform="rotate(-0, 50.6, 199.42044)" x="50.6" y="199.42044">200</text>
     </g>
    </g>
    <g id="ytick_4">
     <g id="line2d_9">
      <g>
       <use style="stroke:#000000;stroke-width:0.8;" x="57.6" xlink:href="#mfe8ec1b23b" y="143.227418"/>
      </g>
     </g>
     <g id="text_10">
      <text style="font-family:DejaVu Sans;font-size:10px;font-style:normal;font-weight:normal;text-anchor:end;" transform="rotate(-0, 50.6, 147.026637)" x="50.6" y="147.026637">300</text>
     </g>
    </g>
    <g id="ytick_5">
     <g id="line2d_10">
      <g>
       <use style="stroke:#000000;stroke-width:0.8;" x="57.6" xlink:href="#mfe8ec1b23b" y="90.833616"/>
      </g>
     </g>
     <g id="text_11">
      <text style="font-family:DejaVu Sans;font-size:10px;font-style:normal;font-weight:normal;text-anchor:end;" transform="rotate(-0, 50.6, 94.632835)" x="50.6" y="94.632835">400</text>
     </g>
    </g>
    <g id="text_12">
     <text style="font-family:DejaVu Sans;font-size:10px;font-style:normal;font-weight:normal;text-anchor:middle;" transform="rotate(-90, 25.432812, 174.528)" x="25.432812" y="174.528">Average Bits Consumed Per Call</text>
    </g>
   </g>
   <g id="line2d_11">
    <path clip-path="url(#p797020d395)" d="M 73.832727 280.066408 
L 81.21124 280.513851 
L 88.589752 283.251951 
L 95.968264 281.127907 
L 103.346777 280.99797 
L 110.725289 283.097914 
L 118.103802 280.141855 
L 125.482314 282.886243 
L 132.860826 282.884147 
L 140.239339 281.958872 
L 147.617851 282.543587 
L 154.996364 281.84675 
L 162.374876 283.151355 
L 169.753388 284.552366 
L 177.131901 279.548757 
L 184.510413 281.740914 
L 191.888926 280.659506 
L 199.267438 279.632587 
L 206.64595 279.098171 
L 214.024463 281.467418 
L 221.402975 278.333221 
L 228.781488 275.781643 
L 236.16 277.56408 
L 243.538512 278.495642 
L 250.917025 276.891344 
L 258.295537 274.360723 
L 265.67405 278.688451 
L 273.052562 275.302764 
L 280.431074 275.909484 
L 287.809587 274.635267 
L 295.188099 270.637619 
L 302.566612 273.466885 
L 309.945124 270.393464 
L 317.323636 266.436684 
L 324.702149 261.281134 
L 332.080661 266.0343 
L 339.459174 257.655483 
L 346.837686 256.308962 
M 361.594711 259.429537 
L 368.973223 256.459857 
L 376.351736 244.366319 
L 383.730248 240.861174 
L 391.10876 241.283468 
L 398.487273 233.150902 
" style="fill:none;stroke:#1f77b4;stroke-linecap:square;stroke-width:1.5;"/>
   </g>
   <g id="line2d_12">
    <path clip-path="url(#p797020d395)" d="M 73.832727 269.582408 
L 81.21124 269.254423 
L 88.589752 269.46295 
L 95.968264 268.987215 
L 103.346777 269.243944 
L 110.725289 263.208178 
L 118.103802 264.553651 
L 125.482314 263.862053 
L 132.860826 265.139414 
L 140.239339 265.192856 
L 147.617851 263.057284 
L 154.996364 265.368899 
L 162.374876 263.468052 
L 169.753388 258.116549 
L 177.131901 260.640882 
L 184.510413 259.042871 
L 191.888926 259.60558 
L 199.267438 258.171038 
L 206.64595 253.338234 
L 214.024463 252.440204 
L 221.402975 251.127215 
L 228.781488 252.599481 
L 236.16 248.654228 
L 243.538512 245.782 
L 250.917025 243.600322 
L 258.295537 242.843755 
L 265.67405 240.119277 
L 273.052562 239.955809 
L 280.431074 241.570586 
L 287.809587 231.646152 
L 295.188099 224.861154 
L 302.566612 230.166551 
L 309.945124 223.321824 
L 317.323636 220.801682 
L 324.702149 219.447827 
L 332.080661 206.39653 
L 339.459174 195.71029 
M 354.216198 205.461825 
L 361.594711 177.774844 
M 376.351736 161.445791 
" style="fill:none;stroke:#ff7f0e;stroke-linecap:square;stroke-width:1.5;"/>
   </g>
   <g id="line2d_13">
    <path clip-path="url(#p797020d395)" d="M 73.832727 295.488 
L 81.21124 294.060793 
L 88.589752 294.74296 
L 95.968264 293.67727 
L 103.346777 294.112139 
L 110.725289 292.155754 
L 118.103802 292.118031 
L 125.482314 291.43272 
L 132.860826 291.423289 
L 140.239339 290.423615 
L 147.617851 290.765223 
L 154.996364 290.487535 
L 162.374876 288.890572 
L 169.753388 287.607972 
L 177.131901 286.191244 
L 184.510413 284.546078 
L 191.888926 284.406711 
L 199.267438 280.600825 
L 206.64595 278.339508 
L 214.024463 277.517974 
L 221.402975 271.6834 
L 228.781488 269.714441 
L 236.16 269.26595 
L 243.538512 263.58227 
L 250.917025 249.396124 
" style="fill:none;stroke:#2ca02c;stroke-linecap:square;stroke-width:1.5;"/>
   </g>
   <g id="line2d_14">
    <path clip-path="url(#p797020d395)" d="M 73.832727 283.235185 
L 81.21124 283.880677 
L 88.589752 283.97289 
L 95.968264 284.578562 
L 103.346777 283.738166 
L 110.725289 284.122736 
L 118.103802 279.190384 
L 125.482314 278.499833 
L 132.860826 279.049968 
L 140.239339 278.833058 
L 147.617851 280.106227 
L 154.996364 279.244873 
L 162.374876 277.679347 
L 169.753388 278.032481 
L 177.131901 279.873599 
L 184.510413 272.871691 
L 191.888926 274.720145 
L 199.267438 268.122717 
L 206.64595 273.218538 
L 214.024463 273.242639 
L 221.402975 268.966257 
L 228.781488 268.643511 
L 236.16 264.229857 
M 258.295537 265.936848 
L 265.67405 263.676579 
L 273.052562 263.511014 
M 302.566612 251.237242 
L 309.945124 242.686574 
M 332.080661 246.699939 
L 339.459174 222.335773 
L 346.837686 224.908309 
M 368.973223 205.322457 
" style="fill:none;stroke:#d62728;stroke-linecap:square;stroke-width:1.5;"/>
   </g>
   <g id="line2d_15">
    <path clip-path="url(#p797020d395)" d="M 81.21124 53.568 
L 88.589752 149.729489 
L 95.968264 189.82961 
L 103.346777 203.261285 
L 110.725289 217.331117 
L 118.103802 224.073151 
L 125.482314 230.856053 
L 132.860826 229.576596 
L 140.239339 235.1251 
L 147.617851 238.365133 
L 154.996364 241.628219 
L 162.374876 242.055752 
L 169.753388 243.247187 
L 177.131901 245.232913 
L 184.510413 242.055752 
L 191.888926 248.293758 
L 199.267438 249.888626 
L 206.64595 249.742971 
L 214.024463 244.438622 
L 221.402975 249.526061 
L 228.781488 246.073309 
L 236.16 252.955759 
M 250.917025 250.089818 
" style="fill:none;stroke:#9467bd;stroke-linecap:square;stroke-width:1.5;"/>
   </g>
   <g id="patch_3">
    <path d="M 57.6 307.584 
L 57.6 41.472 
" style="fill:none;stroke:#000000;stroke-linecap:square;stroke-linejoin:miter;stroke-width:0.8;"/>
   </g>
   <g id="patch_4">
    <path d="M 414.72 307.584 
L 414.72 41.472 
" style="fill:none;stroke:#000000;stroke-linecap:square;stroke-linejoin:miter;stroke-width:0.8;"/>
   </g>
   <g id="patch_5">
    <path d="M 57.6 307.584 
L 414.72 307.584 
" style="fill:none;stroke:#000000;stroke-linecap:square;stroke-linejoin:miter;stroke-width:0.8;"/>
   </g>
   <g id="patch_6">
    <path d="M 57.6 41.472 
L 414.72 41.472 
" style="fill:none;stroke:#000000;stroke-linecap:square;stroke-linejoin:miter;stroke-width:0.8;"/>
   </g>
   <g id="text_13">
    <text style="font-family:DejaVu Sans;font-size:12px;font-style:normal;font-weight:normal;text-anchor:middle;" transform="rotate(-0, 236.16, 35.472)" x="236.16" y="35.472">Avg. Bits Consumed by 2014 Lin. x*2.0 Algorithm</text>
   </g>
   <g id="legend_1">
    <g id="patch_7">
     <path d="M 233.6325 122.862625 
L 407.72 122.862625 
Q 409.72 122.862625 409.72 120.862625 
L 409.72 48.472 
Q 409.72 46.472 407.72 46.472 
L 233.6325 46.472 
Q 231.6325 46.472 231.6325 48.472 
L 231.6325 120.862625 
Q 231.6325 122.862625 233.6325 122.862625 
z
" style="fill:#ffffff;opacity:0.8;stroke:#cccccc;stroke-linejoin:miter;"/>
    </g>
    <g id="line2d_16">
     <path d="M 235.6325 54.570438 
L 255.6325 54.570438 
" style="fill:none;stroke:#1f77b4;stroke-linecap:square;stroke-width:1.5;"/>
    </g>
    <g id="line2d_17"/>
    <g id="text_14">
     <text style="font-family:DejaVu Sans;font-size:10px;font-style:normal;font-weight:normal;text-anchor:start;" transform="rotate(-0, 263.6325, 58.070438)" x="263.6325" y="58.070438">2014 Lin. x*2.0</text>
    </g>
    <g id="line2d_18">
     <path d="M 235.6325 69.248563 
L 255.6325 69.248563 
" style="fill:none;stroke:#ff7f0e;stroke-linecap:square;stroke-width:1.5;"/>
    </g>
    <g id="line2d_19"/>
    <g id="text_15">
     <text style="font-family:DejaVu Sans;font-size:10px;font-style:normal;font-weight:normal;text-anchor:start;" transform="rotate(-0, 263.6325, 72.748563)" x="263.6325" y="72.748563">2016 Lin. x*2.0</text>
    </g>
    <g id="line2d_20">
     <path d="M 235.6325 83.926688 
L 255.6325 83.926688 
" style="fill:none;stroke:#2ca02c;stroke-linecap:square;stroke-width:1.5;"/>
    </g>
    <g id="line2d_21"/>
    <g id="text_16">
     <text style="font-family:DejaVu Sans;font-size:10px;font-style:normal;font-weight:normal;text-anchor:start;" transform="rotate(-0, 263.6325, 87.426688)" x="263.6325" y="87.426688">Low-Mean Lin. x*2.0</text>
    </g>
    <g id="line2d_22">
     <path d="M 235.6325 98.604813 
L 255.6325 98.604813 
" style="fill:none;stroke:#d62728;stroke-linecap:square;stroke-width:1.5;"/>
    </g>
    <g id="line2d_23"/>
    <g id="text_17">
     <text style="font-family:DejaVu Sans;font-size:10px;font-style:normal;font-weight:normal;text-anchor:start;" transform="rotate(-0, 263.6325, 102.104813)" x="263.6325" y="102.104813">2019x*2.0</text>
    </g>
    <g id="line2d_24">
     <path d="M 235.6325 113.282938 
L 255.6325 113.282938 
" style="fill:none;stroke:#9467bd;stroke-linecap:square;stroke-width:1.5;"/>
    </g>
    <g id="line2d_25"/>
    <g id="text_18">
     <text style="font-family:DejaVu Sans;font-size:10px;font-style:normal;font-weight:normal;text-anchor:start;" transform="rotate(-0, 263.6325, 116.782938)" x="263.6325" y="116.782938">Low-Mean M=0.49999 x*2.0</text>
    </g>
   </g>
  </g>
 </g>
 <defs>
  <clipPath id="p797020d395">
   <rect height="266.112" width="357.12" x="57.6" y="41.472"/>
  </clipPath>
 </defs>
</svg>

<svg height="460.8" viewBox="0 0 460.8 345.6" width="614.4" xmlns="http://www.w3.org/2000/svg" xmlns:xlink="http://www.w3.org/1999/xlink"><defs><style>*{stroke-linecap:butt;stroke-linejoin:round}</style></defs><g id="figure_1"><path d="M0 345.6h460.8V0H0z" fill="#fff" id="patch_1"/><g id="axes_1"><path d="M57.6 307.584h357.12V41.472H57.6z" fill="#fff" id="patch_2"/><g id="matplotlib.axis_1"><g id="xtick_1"><g id="line2d_1"><defs><path d="M0 0v3.5" id="m32bc4f2425" stroke="#000" stroke-width=".8"/></defs><use x="73.76" xlink:href="#m32bc4f2425" y="307.584" stroke="#000" stroke-width=".8"/></g><text x="73.76" y="322.182" font-family="DejaVu Sans" font-size="10" font-weight="400" text-anchor="middle" id="text_1">0.0</text></g><g id="xtick_2"><use x="146.822" xlink:href="#m32bc4f2425" y="307.584" stroke="#000" stroke-width=".8" id="line2d_2"/><text x="146.822" y="322.182" font-family="DejaVu Sans" font-size="10" font-weight="400" text-anchor="middle" id="text_2">0.1</text></g><g id="xtick_3"><use x="219.883" xlink:href="#m32bc4f2425" y="307.584" stroke="#000" stroke-width=".8" id="line2d_3"/><text x="219.883" y="322.182" font-family="DejaVu Sans" font-size="10" font-weight="400" text-anchor="middle" id="text_3">0.2</text></g><g id="xtick_4"><use x="292.945" xlink:href="#m32bc4f2425" y="307.584" stroke="#000" stroke-width=".8" id="line2d_4"/><text x="292.945" y="322.182" font-family="DejaVu Sans" font-size="10" font-weight="400" text-anchor="middle" id="text_4">0.3</text></g><g id="xtick_5"><use x="366.007" xlink:href="#m32bc4f2425" y="307.584" stroke="#000" stroke-width=".8" id="line2d_5"/><text x="366.007" y="322.182" font-family="DejaVu Sans" font-size="10" font-weight="400" text-anchor="middle" id="text_5">0.4</text></g><text x="236.16" y="335.861" font-family="DejaVu Sans" font-size="10" font-weight="400" text-anchor="middle" id="text_6">Probability</text></g><g id="matplotlib.axis_2"><g id="ytick_1"><g id="line2d_6"><defs><path d="M0 0h-3.5" id="mfe8ec1b23b" stroke="#000" stroke-width=".8"/></defs><use x="57.6" xlink:href="#mfe8ec1b23b" y="300.409" stroke="#000" stroke-width=".8"/></g><text x="50.6" y="304.208" font-family="DejaVu Sans" font-size="10" font-weight="400" text-anchor="end" id="text_7">0</text></g><g id="ytick_2"><use x="57.6" xlink:href="#mfe8ec1b23b" y="248.015" stroke="#000" stroke-width=".8" id="line2d_7"/><text x="50.6" y="251.814" font-family="DejaVu Sans" font-size="10" font-weight="400" text-anchor="end" id="text_8">100</text></g><g id="ytick_3"><use x="57.6" xlink:href="#mfe8ec1b23b" y="195.621" stroke="#000" stroke-width=".8" id="line2d_8"/><text x="50.6" y="199.42" font-family="DejaVu Sans" font-size="10" font-weight="400" text-anchor="end" id="text_9">200</text></g><g id="ytick_4"><use x="57.6" xlink:href="#mfe8ec1b23b" y="143.227" stroke="#000" stroke-width=".8" id="line2d_9"/><text x="50.6" y="147.027" font-family="DejaVu Sans" font-size="10" font-weight="400" text-anchor="end" id="text_10">300</text></g><g id="ytick_5"><use x="57.6" xlink:href="#mfe8ec1b23b" y="90.834" stroke="#000" stroke-width=".8" id="line2d_10"/><text x="50.6" y="94.633" font-family="DejaVu Sans" font-size="10" font-weight="400" text-anchor="end" id="text_11">400</text></g><text transform="rotate(-90 25.433 174.528)" x="25.433" y="174.528" font-family="DejaVu Sans" font-size="10" font-weight="400" text-anchor="middle" id="text_12">Average Bits Consumed Per Call</text></g><path clip-path="url(#p797020d395)" d="M73.833 280.066l7.378.448 7.379 2.738 7.378-2.124 7.379-.13 7.378 2.1 7.379-2.956 7.378 2.744 7.379-.002 7.378-.925 7.379.585 7.378-.697 7.379 1.304 7.378 1.401 7.379-5.003 7.378 2.192 7.379-1.081 7.378-1.027 7.379-.535 7.378 2.37 7.379-3.135 7.378-2.551 7.379 1.782 7.379.932 7.378-1.605 7.379-2.53 7.378 4.327 7.379-3.385 7.378.606 7.379-1.274 7.378-3.997 7.379 2.829 7.378-3.074 7.379-3.956 7.378-5.156 7.379 4.753 7.378-8.379 7.379-1.346m14.757 3.12l7.378-2.97 7.379-12.093 7.378-3.505 7.379.422 7.378-8.132" fill="none" stroke="#1f77b4" stroke-linecap="square" stroke-width="1.5" id="line2d_11"/><path clip-path="url(#p797020d395)" d="M73.833 269.582l7.378-.328 7.379.209 7.378-.476 7.379.257 7.378-6.036 7.379 1.346 7.378-.692 7.379 1.277 7.378.054 7.379-2.136 7.378 2.312 7.379-1.9 7.378-5.352 7.379 2.524 7.378-1.598 7.379.563 7.378-1.435 7.379-4.833 7.378-.898 7.379-1.313 7.378 1.472 7.379-3.945 7.379-2.872 7.378-2.182 7.379-.756 7.378-2.725 7.379-.163 7.378 1.615 7.379-9.925 7.378-6.785 7.379 5.306 7.378-6.845 7.379-2.52 7.378-1.354 7.379-13.051 7.378-10.687m14.757 9.752l7.379-27.687m14.757-16.33" fill="none" stroke="#ff7f0e" stroke-linecap="square" stroke-width="1.5" id="line2d_12"/><path clip-path="url(#p797020d395)" d="M73.833 295.488l7.378-1.427 7.379.682 7.378-1.066 7.379.435 7.378-1.956 7.379-.038 7.378-.685 7.379-.01 7.378-1 7.379.342 7.378-.277 7.379-1.597 7.378-1.283 7.379-1.417 7.378-1.645 7.379-.14 7.378-3.805 7.379-2.261 7.378-.822 7.379-5.835 7.378-1.969 7.379-.448 7.379-5.684 7.378-14.186" fill="none" stroke="#2ca02c" stroke-linecap="square" stroke-width="1.5" id="line2d_13"/><path clip-path="url(#p797020d395)" d="M73.833 283.235l7.378.646 7.379.092 7.378.606 7.379-.84 7.378.384 7.379-4.933 7.378-.69 7.379.55 7.378-.217 7.379 1.273 7.378-.861 7.379-1.566 7.378.353 7.379 1.842 7.378-7.002 7.379 1.848 7.378-6.597 7.379 5.096 7.378.024 7.379-4.277 7.378-.322 7.379-4.414m22.136 1.707l7.378-2.26 7.379-.166m29.514-12.274l7.378-8.55m22.136 4.013l7.378-24.364 7.379 2.572m22.135-19.586" fill="none" stroke="#d62728" stroke-linecap="square" stroke-width="1.5" id="line2d_14"/><path clip-path="url(#p797020d395)" d="M81.211 53.568l7.379 96.161 7.378 40.1 7.379 13.432 7.378 14.07 7.379 6.742 7.378 6.783 7.379-1.28 7.378 5.55 7.379 3.24 7.378 3.262 7.379.428 7.378 1.191 7.379 1.986 7.378-3.177 7.379 6.238 7.378 1.595 7.379-.146 7.378-5.304 7.379 5.087 7.378-3.453 7.379 6.883m14.757-2.866" fill="none" stroke="#9467bd" stroke-linecap="square" stroke-width="1.5" id="line2d_15"/><path d="M57.6 307.584V41.472" fill="none" stroke="#000" stroke-linecap="square" stroke-width=".8" id="patch_3"/><path d="M414.72 307.584V41.472" fill="none" stroke="#000" stroke-linecap="square" stroke-width=".8" id="patch_4"/><path d="M57.6 307.584h357.12" fill="none" stroke="#000" stroke-linecap="square" stroke-width=".8" id="patch_5"/><path d="M57.6 41.472h357.12" fill="none" stroke="#000" stroke-linecap="square" stroke-width=".8" id="patch_6"/><text x="236.16" y="35.472" font-family="DejaVu Sans" font-size="12" font-weight="400" text-anchor="middle" id="text_13">Avg. Bits Consumed by 2014 Lin. x*2.0 Algorithm</text><g id="legend_1"><path d="M233.632 122.863H407.72q2 0 2-2V48.472q0-2-2-2H233.632q-2 0-2 2v72.39q0 2 2 2z" fill="#fff" opacity=".8" stroke="#ccc" id="patch_7"/><path d="M235.632 54.57h20" fill="none" stroke="#1f77b4" stroke-linecap="square" stroke-width="1.5" id="line2d_16"/><text x="263.632" y="58.07" font-family="DejaVu Sans" font-size="10" font-weight="400" id="text_14">2014 Lin. x*2.0</text><path d="M235.632 69.249h20" fill="none" stroke="#ff7f0e" stroke-linecap="square" stroke-width="1.5" id="line2d_18"/><text x="263.632" y="72.749" font-family="DejaVu Sans" font-size="10" font-weight="400" id="text_15">2016 Lin. x*2.0</text><path d="M235.632 83.927h20" fill="none" stroke="#2ca02c" stroke-linecap="square" stroke-width="1.5" id="line2d_20"/><text x="263.632" y="87.427" font-family="DejaVu Sans" font-size="10" font-weight="400" id="text_16">Low-Mean Lin. x*2.0</text><path d="M235.632 98.605h20" fill="none" stroke="#d62728" stroke-linecap="square" stroke-width="1.5" id="line2d_22"/><text x="263.632" y="102.105" font-family="DejaVu Sans" font-size="10" font-weight="400" id="text_17">2019x*2.0</text><path d="M235.632 113.283h20" fill="none" stroke="#9467bd" stroke-linecap="square" stroke-width="1.5" id="line2d_24"/><text x="263.632" y="116.783" font-family="DejaVu Sans" font-size="10" font-weight="400" id="text_18">Low-Mean M=0.49999 x*2.0</text></g></g></g><defs><clipPath id="p797020d395"><path d="M57.6 41.472h357.12v266.112H57.6z"/></clipPath></defs></svg>
